!!!!SEGMENT: pl-wnifc--2714-n--001-003_nowakowski-jozef--12-etudes-op-25-3-moderato.krn
!!!cenid: 18xx:3901
!!!COM: Nowakowski, Józef
!!!COM-rismID: pe175316
!!!CDT: 1880/09/16-1865/08/27
!!!CNT: Polish
!!!GTL: 12 Etudes op. 25
!!!OTL: 3. Moderato
!!!OMV: 003
!!!PDT:
!!!AGN: Secular; Etude
!!!YEC: Copyright 2022 Narodowy Instytut Fryderyka Chopina (https://polishscores.org)
!!!YEM: License CC-BY-4.0 (https://creativecommons.org/licenses/by/4.0)
!!!SMS-siglum: PL-Wnifc
!!!SMS-shelfmark: 2714/n
!!!SMS-shelfwork: 001-003 G
!!!SMS-variant:
!!!SMS-altvar:
!!!NIFC-rismSourceID: 1001141174
!!!NIFC-rismChildID: 1001141177
!!!NIFC-islandoraID: nifc:211989
!!!URL-pdf-islandora: https://repozytorium.nifc.pl/islandora/object/nifc%3A211989/datastream/PDF/view
!!!URL-scan: https://polish.musicsources.pl/pl/lokalizacje/galeria/druki-muzyczne/16821 @EN{Scan on Polish Music Sources Website} @PL{Skany w portalu Dziedzictwo Muzyki Polskiej w otwartym dostępie}
!!!IIIF:
!!!ONB-nifc: UWAGA: w zbiorze znajdują się 3 Etiudy: 1. Moderato, 2. Allegro vivace, 3. Moderato
!!!AIN: 1 piano
!!!key: G-
**kern	**fing	**dynam	**kern	**dynam	**fing
*part2	*	*	*part1	*	*
*staff2	*	*	*staff1	*	*
*I"Piano	*	*	*I"Piano	*	*
*I'P-no	*	*	*I'P-no	*	*
*ICklav	*	*	*	*	*
*Ipiano	*	*	*	*	*
*clefF4	*	*	*clefG2	*	*
*k[b-e-a-d-g-c-]	*	*	*k[b-e-a-d-g-c-]	*	*
*G-:	*	*	*G-:	*	*
*M6/8	*	*	*M6/8	*	*
!	!	!	!LO:TX:a:t=Moderato. .=144.	!	!
!	!	!	!LO:TX:a:i:t=molto cantabile e dolce	!	!
8r	.	.	(16g-/LL	p	.
.	.	.	16b-/JJ	.	.
=1	=1	=1	=1	=1	=1
*	*	*	*^	*	*
(32GG-\LLL	5	.	4.dd- 4.d-/	8r	.	.
32D-\	3	.	.	.	.	.
32E-\	2	.	.	.	.	.
32F\JJJ	1	.	.	.	.	.
32G-\LLL	3	<	.	8b-L 8g-\	.	.
32B-\	2	.	.	.	.	.
32A-\	1	.	.	.	.	.
32F\JJJ	3	[	.	.	.	.
32A-\LLL	1	>	.	8b-J 8g-\	.	.
32G-\	2	.	.	.	.	.
32D-\	3	.	.	.	.	.
32BB-\JJJ	4	]	.	.	.	.
(32GG-\LLL)	5	.	4.gg- 4.g-/	8r	.	.
32D-\	.	.	.	.	.	.
32E-\	.	.	.	.	.	.
32F\JJJ	.	.	.	.	.	.
32G-\LLL	.	<	.	8dd-L 8b-\	.	.
32A-\	.	.	.	.	.	.
32B-\	.	.	.	.	.	.
32F\JJJ	.	[	.	.	.	.
32A-\LLL	.	>	.	8dd-J 8b-\	.	.
32G-\	.	.	.	.	.	.
32D-\	.	.	.	.	.	.
32BB-\JJJ	1	]	.	.	.	.
!!LO:LB:g=original
=2	=2	=2	=2	=2	=2	=2
(32CC-/LLL)	5	.	4.ff 4.f/	8r	.	.
32GG-/	3	.	.	.	.	.
32AA-/	2	.	.	.	.	.
32BB-/JJJ	1	.	.	.	.	.
32C-/LLL	3	.	.	8cc-L 8g-\	.	.
32D-/	2	.	.	.	.	.
32E-/	1	.	.	.	.	.
32BB-/JJJ	3	.	.	.	.	.
32D-/LLL	1	.	.	8cc-J 8g-\	.	.
32C-/	2	.	.	.	.	.
32GG-/	3	.	.	.	.	.
32EE-/JJJ	4	.	.	.	.	.
(32CC-/LLL)	.	.	4.ee- 4.e-/	8r	.	.
32GG-/	.	.	.	.	.	.
32AA-/	.	.	.	.	.	.
32BB-/JJJ	.	.	.	.	.	.
32C-/LLL	.	.	.	8cc-L 8g-\	.	.
32D-/	.	.	.	.	.	.
32E-/	.	.	.	.	.	.
32BB-/JJJ	.	.	.	.	.	.
32D-/LLL	.	.	.	8cc-J 8g-\	.	.
32C-/	.	.	.	.	.	.
32GG-/	.	.	.	.	.	.
32EE-/JJJ	.	.	.	.	.	.
=3	=3	=3	=3	=3	=3	=3
(32DD-/LLL)	5	.	(4.a- 4.A-/)	8r	.	.
32AA-/	3	.	.	.	.	.
32BB-/	.	.	.	.	.	.
32Cn/JJJ	.	.	.	.	.	.
32D-\LLL	3	.	.	8fL 8d-\	.	.
32E-\	.	.	.	.	.	.
32F\	.	.	.	.	.	.
32C\JJJ	3	.	.	.	.	.
32E-/LLL	1	.	.	8fJ 8d-\	.	.
32D-/	2	.	.	.	.	.
32AA-/	3	.	.	.	.	.
32FF/JJJ	4	.	.	.	.	.
(32DD-/LLL)	.	.	4dd- 4d-/	8r	.	.
32AA-/	.	.	.	.	.	.
32BB-/	.	.	.	.	.	.
32C/JJJ	.	.	.	.	.	.
32D-\LLL	.	.	.	8a-L 8f\	.	.
32E-\	.	.	.	.	.	.
32F\	.	.	.	.	.	.
32C\JJJ	.	.	.	.	.	.
32E-\LLL	.	.	8cc-X 8c-X/	8a-J 8d-\	.	.
32D-\	.	.	.	.	.	.
32FF\	3	.	.	.	.	.
32D-\JJJ	.	.	.	.	.	.
!!LO:LB:g=original
=4	=4	=4	=4	=4	=4	=4
(32GG-/LLL)	5	.	4.cc- 4.c-/	8r	.	.
32Cn/	3	.	.	.	.	.
32D-/	.	.	.	.	.	.
32Dn/JJJ	.	.	.	.	.	.
32E-\LLL	3	.	.	8a-L 8d-\	.	.
32En\	.	.	.	.	.	.
32F\	1	.	.	.	.	.
32A-\JJJ	2	.	.	.	.	.
32G-\LLL	3	.	.	8a-J 8d-\	.	.
32F\	1	.	.	.	.	.
32E-X\	.	.	.	.	.	.
32D-X\JJJ	.	.	.	.	.	.
32GG-\LLL)	5	.	4b- 4B-/	8r	.	.
(32G-\	1	.	.	.	.	.
32F\	2	.	.	.	.	.
32E-\JJJ	3	.	.	.	.	.
!	!	!	!LO:TX:a:i:t=poco rall.	!	!	!
32D-\LLL	4	.	.	8g- 8d-\)	.	.
32E-\	1	.	.	.	.	.
32D-\	2	.	.	.	.	.
32C-X\JJJ	3	.	.	.	.	.
32BB-/LLL	4	.	8r	8ryy	.	.
8qD-/	1	.	.	.	.	.
32C-/	2	.	.	.	.	.
32BB-/	3	.	.	.	.	.
32AA-/JJJ	4	.	.	.	.	.
=5	=5	=5	=5	=5	=5	=5
(32GG-\LLL)	5	.	(4.dd- 4.d-/	8r	.	.
32D-\	3	.	.	.	.	.
32E-\	.	.	.	.	.	.
32F\JJJ	.	.	.	.	.	.
32G-\LLL	3	.	.	8b-L 8g-\	.	.
32A-\	.	.	.	.	.	.
32B-\	.	.	.	.	.	.
32F\JJJ	.	.	.	.	.	.
32A-\LLL	1	.	.	8b-J 8g-\	.	.
32G-\	2	.	.	.	.	.
32D-\	3	.	.	.	.	.
32BB-\JJJ	4	.	.	.	.	.
(32GG-\LLL)	.	.	4.gg- 4.g-/	8r	.	.
32D-\	.	.	.	.	.	.
32E-\	.	.	.	.	.	.
32F\JJJ	.	.	.	.	.	.
32G-\LLL	.	.	.	8dd-L 8b-\	.	.
32A-\	.	.	.	.	.	.
32B-\	.	.	.	.	.	.
32F\JJJ	.	.	.	.	.	.
32A-\LLL	.	.	.	8dd-J 8b-\	.	.
32G-\	.	.	.	.	.	.
32D-\	.	.	.	.	.	.
32BB-\JJJ	.	.	.	.	.	.
!!LO:LB:g=original
=6	=6	=6	=6	=6	=6	=6
(32AA-\LLL)	5	.	4ff 4f/	8r	<	.
32E-\	3	.	.	.	.	.
32F\	.	.	.	.	.	.
32Gn\JJJ	.	.	.	.	.	.
32A-\LLL	3	.	.	4ccn 4g-X\	.	.
32B-\	.	.	.	.	.	.
32cn\	.	.	.	.	.	.
32G\JJJ	3	.	.	.	.	.
32B-\LLL	1	.	8ee- 8e-/	.	.	.
32A-\	2	.	.	.	.	.
32E-\	3	.	.	.	.	.
32Cn\JJJ	4	.	.	.	.	.
(32AA-\LLL)	.	.	4aa- 4a-/	8r	.	.
32E-\	.	.	.	.	.	.
32F\	.	.	.	.	.	.
32G\JJJ	.	.	.	.	.	.
32A-\LLL	.	.	.	8ee-L 8cc\	.	.
32B-\	.	.	.	.	.	.
32c\	.	.	.	.	.	.
32G\JJJ	.	.	.	.	.	.
32B-\LLL	.	.	8gg- 8g-/	8ee-J 8a-\	.	.
32A-\	.	.	.	.	.	.
32E-\	.	.	.	.	.	.
32C\JJJ	.	.	.	.	.	.
=7	=7	=7	=7	=7	=7	=7
(32AA-\LLL)	5	.	4ff 4f/	8r	.	.
32D-\	3	.	.	.	.	.
32Cn\	.	.	.	.	.	.
32D-\JJJ	.	.	.	.	.	.
32E-\LLL	.	.	.	4dd- 4a-\	.	.
32F\	1	.	.	.	.	.
32G-\	3	.	.	.	.	.
32Gn\JJJ	2	.	.	.	.	.
32B-\LLL	1	.	8ff 8f/	.	.	.
32A-\	2	.	.	.	.	.
32F\	3	.	.	.	.	.
32D-\JJJ	4	.	.	.	.	.
(32AA-\LLL)	5	.	4gg-X 4g-X/	8r	>	.
32E-\	2	.	.	.	.	.
32Dn\	.	.	.	.	.	.
32E-\JJJ	.	.	.	.	.	.
32F\LLL	1	.	.	8ccnL 8a-\	.	.
32G-X\	4	.	.	.	.	.
32Gn\	.	.	.	.	.	.
32A-\JJJ	.	.	.	.	.	.
32B-\LLL	1	.	8cc 8cn/	8g-\J	.	.
32A-\	.	.	.	.	.	.
32G-X\	.	.	.	.	.	.
32E-\JJJ	1	.	.	.	.	.
!!LO:LB:g=original
=8	=8	=8	=8	=8	=8	=8
(32DD-\LLL)	5	.	2.dd- 2.d-/	8f\L	.	.
32D-\	2	.	.	.	.	.
32E--\	1	.	.	.	.	.
32D-\JJJ	.	.	.	.	.	.
32EE-X\LLL	.	.	.	8g-\	.	.
!LO:TX:a:i:t=poco rall.	!	!	!	!	!	!
32D-\	.	.	.	.	.	.
32E-X\	.	.	.	.	.	.
32D-\JJJ	.	.	.	.	.	.
32EEn\LLL	.	.	.	8gn\J	.	.
32D-\	.	.	.	.	.	.
32En\	.	.	.	.	.	.
32D-\JJJ	.	.	.	.	.	.
32FF\LLL	.	.	.	8a-\L	.	.
32D-\	.	.	.	.	.	.
32F\	.	.	.	.	.	.
32D-\JJJ	.	.	.	.	.	.
32GG-\LLL	.	.	.	8b-\	.	.
32D-\	.	.	.	.	.	.
32G-\	.	.	.	.	.	.
32D-\JJJ	.	.	.	.	.	.
32AA-\LLL	.	.	.	8cc-X\J	.	.
32D-\	.	.	.	.	.	.
32A-\	.	.	.	.	.	.
32D-\JJJ	.	.	.	.	.	.
=9	=9	=9	=9	=9	=9	=9
!LO:TX:b:i:t=sempre legato	!	!	!LO:TX:a:i:t=a tempo	!	!	!
32GG-\LLL)	5	.	(4.dd- 4.d-/	8b-L 8g-\)	p	.
32D-\	3	.	.	.	.	.
32E-\	.	.	.	.	.	.
32F\JJJ	.	.	.	.	.	.
32G-\LLL	.	.	.	8b- 8g-\	.	.
32A-\	.	.	.	.	.	.
32B-\	1	.	.	.	.	.
32F\JJJ	3	.	.	.	.	.
32A-\LLL	1	.	.	8b-J 8g-\	.	.
32G-\	2	.	.	.	.	.
32D-\	3	.	.	.	.	.
32BB-\JJJ	4	.	.	.	.	.
32GG-\LLL	.	.	4.gg- 4.g-/	8r	.	.
32D-\	.	.	.	.	.	.
32E-\	.	.	.	.	.	.
32F\JJJ	.	.	.	.	.	.
32G-\LLL	.	.	.	8dd-L 8b-\	.	.
32A-\	.	.	.	.	.	.
32B-\	.	.	.	.	.	.
32F\JJJ	.	.	.	.	.	.
32A-\LLL	.	.	.	8dd-J 8b-\	.	.
32G-\	.	.	.	.	.	.
32D-\	.	.	.	.	.	.
32BB-\JJJ	1	.	.	.	.	.
!!LO:LB:g=original
=10	=10	=10	=10	=10	=10	=10
32CC-/LLL	5	.	4.ff 4.f/	8r	.	.
32GG-/	2	.	.	.	.	.
32AA-/	.	.	.	.	.	.
32BB-/JJJ	1	.	.	.	.	.
32C-/LLL	3	.	.	8cc-L 8g-\	.	.
32D-/	.	.	.	.	.	.
32E-/	1	.	.	.	.	.
32BB-/JJJ	3	.	.	.	.	.
32D-/LLL	1	.	.	8cc-J 8g-\	.	.
32C-/	2	.	.	.	.	.
32GG-/	3	.	.	.	.	.
32EE-/JJJ	4	.	.	.	.	.
32CC-/LLL	.	.	4.ee- 4.e-/	8r	.	.
32GG-/	.	.	.	.	.	.
32AA-/	.	.	.	.	.	.
32BB-/JJJ	.	.	.	.	.	.
32C-/LLL	.	.	.	8cc-L 8g-\	.	.
32D-/	.	.	.	.	.	.
32E-/	.	.	.	.	.	.
32BB-/JJJ	.	.	.	.	.	.
32D-/LLL	.	.	.	8cc-J 8g-\	.	.
32C-/	.	.	.	.	.	.
32GG-/	.	.	.	.	.	.
32EE-/JJJ	.	.	.	.	.	.
=11	=11	=11	=11	=11	=11	=11
32DD-/LLL	5	.	(4.a- 4.A-/)	8r	.	.
32AA-/	3	.	.	.	.	.
32BB-/	.	.	.	.	.	.
32Cn/JJJ	.	.	.	.	.	.
32D-\LLL	3	.	.	8fL 8d-\	.	.
32E-\	.	.	.	.	.	.
32F\	.	.	.	.	.	.
32C\JJJ	3	.	.	.	.	.
32E-/LLL	1	.	.	8fJ 8d-\	.	.
32D-/	2	.	.	.	.	.
32AA-/	3	.	.	.	.	.
32FF/JJJ	4	.	.	.	.	.
32DD-/LLL	.	.	4dd- 4d-/	8r	.	.
32AA-/	.	.	.	.	.	.
32BB-/	.	.	.	.	.	.
32C/JJJ	.	.	.	.	.	.
32D-\LLL	.	.	.	8a-L 8f\	.	.
32E-\	.	.	.	.	.	.
32F\	.	.	.	.	.	.
32C\JJJ	.	.	.	.	.	.
32E-/LLL	.	.	8cc-X 8c-X/	8a-J 8d-\	.	.
32D-/	.	.	.	.	.	.
32FF/	5	.	.	.	.	.
32D-/JJJ	.	.	.	.	.	.
!!LO:PB:g=original
=12	=12	=12	=12	=12	=12	=12
32GG-\LLL	5	.	4.cc- 4.c-~/	8r	.	.
32Cn\	3	.	.	.	.	.
32D-\	.	.	.	.	.	.
32Dn\JJJ	1	.	.	.	.	.
32E-\LLL	3	.	.	8a-L 8d-\	.	.
32En\	.	.	.	.	.	.
32F\	1	.	.	.	.	.
32A-\JJJ	2	.	.	.	.	.
32G-\LLL	3	.	.	8a-J 8d-\	.	.
32F\	.	.	.	.	.	.
32E-X\	.	.	.	.	.	.
32D-X\JJJ	.	.	.	.	.	.
32GG-\LLL	5	.	4.b- 4.B-/	8r	.	.
32D-\	3	.	.	.	.	.
32E-\	.	.	.	.	.	.
32F\JJJ	.	.	.	.	.	.
32G-\LLL	3	.	.	8g-L 8d-\	.	.
32A-\	.	.	.	.	.	.
32B-\	1	.	.	.	.	.
32F\JJJ	.	.	.	.	.	.
32A-\LLL	1	.	.	8g-J 8d-\	.	.
32G-\	2	.	.	.	.	.
32D-\	3	.	.	.	.	.
32BB-\JJJ	4	.	.	.	.	.
=13	=13	=13	=13	=13	=13	=13
32FF\LLL	5	.	(4.b- 4.B-/)	8r	.	.
32BB-\	3	.	.	.	.	.
32D-\	2	.	.	.	.	.
32Dn\JJJ	1	.	.	.	.	.
32E-\LLL	3	.	.	8a-L 8dn\	.	.
32En\	2	.	.	.	.	.
32F\	1	.	.	.	.	.
32A-\JJJ	2	.	.	.	.	.
32G-\LLL	3	.	.	8a-J 8d\	.	.
32F\	1	.	.	.	.	.
32D\	2	.	.	.	.	.
32BB-\JJJ	3	.	.	.	.	.
32FF\LLL	.	.	4cc-X 4c-X/	8r	<	.
32BB-\	.	.	.	.	.	.
32D-X\	.	.	.	.	.	.
32Dn\JJJ	.	.	.	.	.	.
32E-X\LLL	.	.	.	8a-L 8d\	.	.
32En\	.	.	.	.	.	.
32F\	.	.	.	.	.	.
32A-\JJJ	.	.	.	.	.	.
32G-\LLL	.	.	8b- 8B-/	8a-J 8d\	.	.
32F\	.	.	.	.	.	.
32D\	.	.	.	.	.	.
32BB-\JJJ	.	.	.	.	.	.
!!LO:LB:g=original
=14	=14	=14	=14	=14	=14	=14
32EE-/LLL	5	.	4.gg- 4.g-/	8r	f	.
32BB-/	3	.	.	.	.	.
32Cn/	.	.	.	.	.	.
32Dn/JJJ	.	.	.	.	.	.
32E-\LLL	3	.	.	8ee-L 8b-\	.	.
32E-\	.	.	.	.	.	.
32Fn\	1	.	.	.	.	.
32A-\JJJ	2	.	.	.	.	.
32G-\LLL	3	.	.	8ee-J 8b-\	.	.
32E-X\	1	.	.	.	.	.
32BB-\	.	.	.	.	.	.
32GG-\JJJ	.	.	.	.	.	.
32EE-/LLL	5	.	4g- 4G-/	8r	.	.
32BB-/	3	.	.	.	.	.
32C/	.	.	.	.	.	.
32D/JJJ	.	.	.	.	.	.
32E-\LLL	2	.	.	8e-L 8B-\	.	.
32D\	3	.	.	.	.	.
32F\	1	.	.	.	.	.
32E-\JJJ	.	.	.	.	.	.
32E--/LLL	.	.	8a- 8A-/	8g-J 8c-\	.	.
32EE--/	.	.	.	.	.	.
32D-X/	2	.	.	.	.	.
32E--/JJJ	4	.	.	.	.	.
!!LO:LB:g=original
=15	=15	=15	=15	=15	=15	=15
32DD-/LLL	5	.	4.b- 4.B-/	8r	>	.
32GG-/	3	.	.	.	.	.
32AA-/	.	.	.	.	.	.
32AAn/JJJ	.	.	.	.	.	.
32BB-/LLL	3	.	.	8g-L 8d-\	.	.
32C-X/	.	.	.	.	.	.
32Cn/	1	.	.	.	.	.
32E-/JJJ	2	.	.	.	.	.
32D-/LLL	3	.	.	8g-J 8d-\	.	.
32BB-/	1	.	.	.	.	.
32GG-/	2	.	.	.	.	.
32EE-/JJJ	4	.	.	.	.	.
32DD-/LLL	5	.	4cc-X 4c-X/	8r	.	.
32GGn/	3	.	.	.	.	.
32AA-X/	.	.	.	.	.	.
32AAn/JJJ	.	.	.	.	.	.
32BB-/LLL	3	.	.	8fL 8d-\	.	.
32C-X/	.	.	.	.	.	.
32Cn/	1	.	.	.	.	.
32E-/JJJ	2	.	.	.	.	.
32D-/LLL	3	.	8f 8F/	8d-J 8c-\	.	.
32C-X/	1	.	.	.	.	.
32AA/	2	.	.	.	.	.
32DD-/JJJ	3	.	.	.	.	.
!!LO:LB:g=original
=16	=16	=16	=16	=16	=16	=16
32GGG-/LLL	5	.	[4.g- [4.G-/	8d-L 8B-\	.	.
32DD-/	3	.	.	.	.	.
32EE-/	.	.	.	.	.	.
32FF/	.	.	.	.	.	.
32GG-/	3	.	.	8d- 8B-\	.	.
32AA-/	.	.	.	.	.	.
32BB-/	1	.	.	.	.	.
32FF/	3	.	.	.	.	.
32AA-/	1	.	.	8d-J 8B-\	.	.
32GG-/	2	.	.	.	.	.
32DD-/	3	.	.	.	.	.
32BBB-/JJJ	4	.	.	.	.	.
!LO:TX:a:i:t=poco rall.	!	!	!	!	!	!
32GGG-/LLL	.	.	8g-] 8G-/]	8d- 8B-\	.	.
32DD-/	.	.	.	.	.	.
32EE-/	.	.	.	.	.	.
32FF/	.	.	.	.	.	.
32GG-/	.	.	8r	4ryy	.	.
32AA-/	.	.	.	.	.	.
32BB-/	.	.	.	.	.	.
32FF/	.	.	.	.	.	.
32AA-/	.	.	8r	.	.	.
32GG-/	.	.	.	.	.	.
32FF/	.	.	.	.	.	.
32EE-/JJJ	.	.	.	.	.	.
=17	=17	=17	=17	=17	=17	=17
*^	*	*	*	*	*	*
*	*^	*	*	*	*	*	*
*ped	*	*	*	*	*	*	*	*
4.Dn 4.DDn/	8ryy	2ryy	.	.	(4b- 4B-/)	32rc	.	.
.	.	.	.	.	.	32a-\LLL	.	.
.	.	.	.	.	.	32f\	.	.
.	.	.	.	.	.	32B-\JJJ	.	.
.	32dn\LLL	.	.	.	.	8r	.	.
.	32B-\	.	.	.	.	.	.	.
.	32F\	.	.	.	.	.	.	.
.	32D\JJJ	.	.	.	.	.	.	.
.	8r	.	.	.	8b- 8B-/	32rc	.	.
.	.	.	.	.	.	32a-\LLL	.	.
.	.	.	.	.	.	32f\	.	.
.	.	.	.	.	.	32B-\JJJ	.	.
*ped	*	*	*	*	*	*	*	*
4.D-X 4.DD-X/	8ryy	.	.	.	8b- 8B-/	32rc	.	.
.	.	.	.	.	.	32gn\LLL	.	.
.	.	.	.	.	.	32f-X\	.	.
.	.	.	.	.	.	32B-\JJJ	.	.
*clefG2	*	*	*	*	*	*	*	*
!!LO:LB:g=original
.	8cc-X 8c-X/	32rEE	.	.	8r	8r	.	.
.	.	32gn\LLL	.	.	.	.	.	.
.	.	32f-X\	.	.	.	.	.	.
.	.	32c-\JJJ	.	.	.	.	.	.
.	8r	8ryy	.	.	8b- 8B-/	32rc	.	.
.	.	.	.	.	.	32g\LLL	.	.
.	.	.	.	.	.	32f-\	.	.
.	.	.	.	.	.	32B-\JJJ	.	.
*v	*v	*v	*	*	*	*	*	*
*clefF4	*	*	*	*	*	*
=18	=18	=18	=18	=18	=18	=18
*^	*	*	*	*	*	*
*ped	*	*	*	*	*	*	*
4.C-X 4.CC-X/	8ryy	.	.	4b- 4B-/	32rc	.	.
.	.	.	.	.	32e-\LLL	.	.
.	.	.	.	.	32c-X\	.	.
.	.	.	.	.	32A-\JJJ	.	.
.	32c-\LLL	.	.	.	8r	.	.
.	32A-\	.	.	.	.	.	.
.	32E-\	.	.	.	.	.	.
.	32C-\JJJ	.	.	.	.	.	.
.	8r	.	.	8a- 8A-/	32r	.	.
.	.	.	.	.	32e-\LLL	.	.
.	.	.	.	.	32c-\	.	.
.	.	.	.	.	32A-\JJJ	.	.
*ped	*	*	*	*	*	*	*
4.C- 4.CC-/	8ryy	.	.	4.a- 4.A-/	32r	.	.
.	.	.	.	.	32e-\LLL	.	.
.	.	.	.	.	32c-\	.	.
.	.	.	.	.	32A-\JJJ	.	.
.	32c-\LLL	.	.	.	8r	.	.
.	32A-\	.	.	.	.	.	.
.	32E-\	.	.	.	.	.	.
.	32C-\JJJ	5	.	.	.	.	.
.	32C-\LLL	1	.	.	8r	.	.
.	32AA-\	.	.	.	.	.	.
.	32EE-\	.	.	.	.	.	.
.	32CC-\JJJ	.	.	.	.	.	.
*	*	*	*	*clefF4	*	*	*
=19	=19	=19	=19	=19	=19	=19	=19
*ped	*	*	*	*	*	*	*
4.BB- 4.BBB-/	8ryy	.	.	(4g- 4G-/)	32r	.	.
.	.	.	.	.	32e-\LLL	.	.
.	.	.	.	.	32B-\	.	.
.	.	.	.	.	32An\JJJ	.	.
.	32B-\LLL	.	.	.	8r	.	.
.	32G-\	.	.	.	.	.	.
.	32E-\	.	.	.	.	.	.
.	32BB-\JJJ	.	.	.	.	.	.
.	8r	.	.	8g- 8G-/	32r	.	.
.	.	.	.	.	32e-\LLL	.	.
.	.	.	.	.	32B-\	.	.
.	.	.	.	.	32G-\JJJ	.	.
*ped	*	*	*	*	*	*	*
4.AAn 4.AAAn/	8ryy	.	.	8f 8F/	32r	.	.
.	.	.	.	.	32e-\LLL	.	.
.	.	.	.	.	32cn\	.	.
.	.	.	.	.	32F\JJJ	.	.
*clefG2	*	*	*	*	*	*	*
.	32r	.	.	8r	8GG- 8GGG-\	.	.
.	32e-\LLL	.	.	.	.	.	.
.	32cn\	.	.	.	.	.	.
.	32G-\JJJ	.	.	.	.	.	.
.	8rff	.	.	8f 8F/	32r	.	.
.	.	.	.	.	32e-\LLL	.	.
.	.	.	.	.	32c\	.	.
.	.	.	.	.	32F\JJJ	.	.
*clefF4	*	*	*	*	*	*	*
!!LO:LB:g=original
=20	=20	=20	=20	=20	=20	=20	=20
*ped	*	*	*	*	*	*	*
4.BB- 4.BBB-/	8r	.	.	4f 4F/	32r	.	.
.	.	.	.	.	32dn\LLL	.	.
.	.	.	.	.	32B-\	.	.
.	.	.	.	.	32F\JJJ	.	.
.	32B-\LLL	.	.	.	8r	.	.
.	32F\	.	.	.	.	.	.
.	32Dn\	.	.	.	.	.	.
.	32BB-\JJJ	.	.	.	.	.	.
.	8r	.	.	8d-X 8Dn/	32r	.	.
.	.	.	.	.	32B-\LLL	.	.
.	.	.	.	.	32F\	.	.
.	.	.	.	.	32D\JJJ	.	.
*ped	*	*	*	*	*	*	*
4.BBB-/	8ryy	.	.	4.B- 4.BB-/	32r	.	.
.	.	.	.	.	32F\LLL	.	.
.	.	.	.	.	32D\	.	.
.	.	.	.	.	32BB-\JJJ	.	.
.	32BB-/LLL	.	.	.	8r	.	.
.	32FF/	.	.	.	.	.	.
.	32DDn/	.	.	.	.	.	.
.	32BBB-/JJJ	.	.	.	.	.	.
.	8r	.	.	.	32B-LLL 32BB-\	.	.
.	.	.	.	.	32F\	.	.
.	.	.	.	.	32D\	.	.
.	.	.	.	.	32BB-\JJJ	.	.
*	*	*	*	*clefG2	*	*	*
=21	=21	=21	=21	=21	=21	=21	=21
*ped	*	*	*	*	*	*	*
4.Dn 4.DDn/	8r	.	.	(4b- 4B-/)	32r	.	.
.	.	.	.	.	32a-\LLL	.	.
.	.	.	.	.	32f\	.	.
.	.	.	.	.	32B-\JJJ	.	.
.	32dn\LLL	.	.	.	8r	.	.
.	32B-\	.	.	.	.	.	.
.	32F\	.	.	.	.	.	.
.	32D\JJJ	.	.	.	.	.	.
.	8r	.	.	8b- 8B-/	32r	.	.
.	.	.	.	.	32a-\LLL	.	.
.	.	.	.	.	32f\	.	.
.	.	.	.	.	32B-\JJJ	.	.
*ped	*	*	*	*	*	*	*
4.E- 4.EE-/	8ryy	.	.	8b- 8B-/	32r	.	.
.	.	.	.	.	32g-\LLL	.	.
.	.	.	.	.	32e-\	.	.
.	.	.	.	.	32B-\JJJ	.	.
*clefG2	*	*	*	*	*	*	*
.	32r	.	.	8r	8cc-X 8c-X/	<	.
.	32g-\LLL	.	.	.	.	.	.
.	32e-\	.	.	.	.	.	.
.	32c-\JJJ	.	.	.	.	.	.
.	8r	.	.	8b- 8B-/	32r	[	.
.	.	.	.	.	32g-\LLL	.	.
.	.	.	.	.	32e-\	.	.
.	.	.	.	.	32B-\JJJ	.	.
*clefF4	*	*	*	*	*	*	*
!!LO:LB:g=original
=22	=22	=22	=22	=22	=22	=22	=22
*ped	*	*	*	*	*	*	*
4.F 4.FF/	8ryy	.	.	4dd- 4d-/	32r	.	.
.	.	.	.	.	32a-\LLL	.	.
.	.	.	.	.	32f\	.	.
.	.	.	.	.	32cn\JJJ	.	.
.	32d-\LLL	.	.	.	8r	.	.
.	32A-\	.	.	.	.	.	.
.	32F\	.	.	.	.	.	.
.	32D-\JJJ	.	.	.	.	.	.
.	8r	.	.	8cc-X 8c-X/	32r	.	.
.	.	.	.	.	32a-\LLL	.	.
.	.	.	.	.	32d-\	.	.
.	.	.	.	.	32c-\JJJ	.	.
*ped	*	*	*	*	*	*	*
4.G- 4.GG-/	8ryy	.	.	4b- 4B-/	32r	.	.
.	.	.	.	.	32g-\LLL	.	.
.	.	.	.	.	32d-\	.	.
.	.	.	.	.	32cn\JJJ	.	.
.	32d-\LLL	.	.	.	8r	.	.
.	32B-\	.	.	.	.	.	.
.	32G-\	.	.	.	.	.	.
.	32D-\JJJ	.	.	.	.	.	.
.	8r	.	.	(8dd- 8d-/)	32r	.	.
.	.	.	.	.	32b-\LLL	.	.
.	.	.	.	.	32g-\	.	.
.	.	.	.	.	32d-\JJJ	.	.
=23	=23	=23	=23	=23	=23	=23	=23
*ped	*	*	*	*	*	*	*
4.Gn 4.GGn/	8ryy	.	.	4ff-X 4f-X/	32r	.	.
.	.	.	.	.	32dd-\LLL	.	.
.	.	.	.	.	32b-\	.	.
.	.	.	.	.	32f-\JJJ	.	.
*clefG2	*	*	*	*	*	*	*
.	32gn/LLL	.	.	.	8r	.	.
.	32d-/	.	.	.	.	.	.
.	32B-/	.	.	.	.	.	.
.	32Gn/JJJ	.	.	.	.	.	.
.	8r	.	.	8ee- 8e-/	32r	.	.
.	.	.	.	.	32dd-\LLL	.	.
.	.	.	.	.	32b-\	.	.
.	.	.	.	.	32e-\JJJ	.	.
*clefF4	*	*	*	*	*	*	*
*ped	*	*	*	*	*	*	*
4.A- 4.AA-\	8ryy	.	.	4dd- 4d-/	32r	.	.
.	.	.	.	.	32a-\LLL	.	.
.	.	.	.	.	32e-\	.	.
.	.	.	.	.	32dn\JJJ	.	.
.	32e-\LLL	.	.	.	8r	.	.
.	32c-X\	.	.	.	.	.	.
.	32A-\	.	.	.	.	.	.
.	32E-\JJJ	.	.	.	.	.	.
.	8r	.	.	(8cc-X 8c-X/)	32r	.	.
.	.	.	.	.	32a-\LLL	.	.
.	.	.	.	.	32e-\	.	.
.	.	.	.	.	32c-\JJJ	.	.
!!LO:PB:g=original
=24	=24	=24	=24	=24	=24	=24	=24
*ped	*	*	*	*	*	*	*
4.F 4.FF/	8ryy	.	.	4ee- 4e-/	32r	.	.
.	.	.	.	.	32a-\LLL	.	.
.	.	.	.	.	32f\	.	.
.	.	.	.	.	32cn\JJJ	.	.
.	32d-\LLL	.	.	.	8r	.	.
.	32A-\	.	.	.	.	.	.
.	32F\	.	.	.	.	.	.
.	32D-\JJJ	.	.	.	.	.	.
.	8r	.	.	8dd- 8d-/	32r	.	.
.	.	.	.	.	32a-\LLL	.	.
.	.	.	.	.	32f\	.	.
.	.	.	.	.	32d-\JJJ	.	.
*ped	*	*	*	*	*	*	*
4.G- 4.GG-/	8ryy	.	.	4cc-X 4c-X/	32r	.	.
.	.	.	.	.	32a-\LLL	.	.
.	.	.	.	.	32d-\	.	.
.	.	.	.	.	32cn\JJJ	.	.
.	32d-\LLL	.	.	.	8r	.	.
.	32B-\	.	.	.	.	.	.
.	32G-\	.	.	.	.	.	.
.	32D-\JJJ	.	.	.	.	.	.
.	8r	.	.	(8b- 8B-/)	32r	.	.
.	.	.	.	.	32g-\LLL	.	.
.	.	.	.	.	32d-\	.	.
.	.	.	.	.	32B-\JJJ	.	.
=25	=25	=25	=25	=25	=25	=25	=25
*ped	*	*	*	*	*	*	*
4.E- 4.EE-/	8ryy	.	.	4dd- 4d-/	32r	.	.
.	.	.	.	.	32g-\LLL	.	.
.	.	.	.	.	32e-\	.	.
.	.	.	.	.	32B-\JJJ	.	.
.	32c-\LLL	.	.	.	8r	.	.
.	32G-\	.	.	.	.	.	.
.	32E-\	.	.	.	.	.	.
.	32C-\JJJ	.	.	.	.	.	.
.	8r	.	.	8cc- 8c-/	32r	.	.
.	.	.	.	.	32g-\LLL	.	.
.	.	.	.	.	32e-\	.	.
.	.	.	.	.	32c-\JJJ	.	.
*ped	*	*	*	*	*	*	*
4.F 4.FF/	8ryy	.	.	4b- 4B-/	32r	.	.
.	.	.	.	.	32e-\LLL	.	.
.	.	.	.	.	32c-\	.	.
.	.	.	.	.	32A-\JJJ	.	.
.	32c-\LLL	.	.	.	8r	.	.
.	32A-\	.	.	.	.	.	.
.	32E-\	.	.	.	.	.	.
.	32C-\JJJ	.	.	.	.	.	.
.	8r	.	.	(8a- 8A-/)	32r	.	.
.	.	.	.	.	32e-\LLL	.	.
.	.	.	.	.	32c-\	.	.
.	.	.	.	.	32A-\JJJ	.	.
!!LO:LB:g=original
=26	=26	=26	=26	=26	=26	=26	=26
*ped	*	*	*	*	*	*	*
4.Dn 4.DDn/	8ryy	.	.	4cc- 4c-/	32r	.	.
!	!	!	!	!	!	!LO:DY:a	!
.	.	.	.	.	32f\LLL	>	.
.	.	.	.	.	32dn\	.	.
.	.	.	.	.	32An\JJJ	.	.
.	32B-\LLL	.	.	.	8r	.	.
.	32A-X\	.	.	.	.	.	.
.	32F\	.	.	.	.	.	.
.	32BB-\JJJ	.	.	.	.	.	.
.	8r	.	.	8b- 8B-/	32r	.	.
.	.	.	.	.	32f\LLL	.	.
.	.	.	.	.	32d\	.	.
.	.	.	.	.	32B-\JJJ	.	.
*ped	*	*	*	*	*	*	*
4.E- 4.EE-/	8ryy	.	.	4a-X 4A-X/	32r	.	.
.	.	.	.	.	32e-\LLL	.	.
.	.	.	.	.	32B-\	.	.
.	.	.	.	.	32An\JJJ	.	.
.	32B-\LLL	.	.	.	8r	.	.
.	32G-\	.	.	.	.	.	.
.	32E-\	.	.	.	.	.	.
.	32BB-\JJJ	.	.	.	.	.	.
.	8r	.	.	(8g- 8G-/)	32r	.	.
.	.	.	.	.	32e-\LLL	.	.
.	.	.	.	.	32B-\	.	.
.	.	.	.	.	32G-\JJJ	.	.
=27	=27	=27	=27	=27	=27	=27	=27
*ped	*	*	*	*	*	*	*
4.FF/	8ryy	.	.	4f 4F/	32r	.	.
.	.	.	.	.	32d-\LLL	.	.
.	.	.	.	.	32B-\	.	.
.	.	.	.	.	32An\JJJ	.	.
.	32cn\LLL	.	.	.	8r	.	.
.	32B-\	.	.	.	.	.	.
.	32G-\	.	.	.	.	.	.
.	32F\JJJ	.	.	.	.	.	.
!	!	!	!	!	!	!LO:DY:a	!
.	8r	.	.	8f 8F/	32r	<	.
.	.	.	.	.	32d-\LLL	.	.
.	.	.	.	.	32B-\	[	.
.	.	.	.	.	32F\JJJ	.	.
*ped	*	*	*	*	*	*	*
4.FF 4.FFF/	8ryy	.	.	4dd- 4d-/	32r	.	.
.	.	.	.	.	32g-\LLL	.	.
.	.	.	.	.	32e-\	.	.
.	.	.	.	.	32cn\JJJ	.	.
.	32An\LLL	.	.	.	8r	.	.
.	32E-\	.	.	.	.	.	.
.	32Cn\	.	.	.	.	.	.
.	32FF\JJJ	.	.	.	.	.	.
.	8r	.	.	8ccn 8c/	32r	.	.
.	.	.	.	.	32f\LLL	.	.
.	.	.	.	.	32e-\	.	.
.	.	.	.	.	32An\JJJ	.	.
!!LO:LB:g=original
=28	=28	=28	=28	=28	=28	=28	=28
*ped	*	*	*	*	*	*	*
4.BB- 4.BBB-/	8ryy	.	.	4b- 4B-/	32r	ff	.
.	.	.	.	.	32f\LLL	.	.
.	.	.	.	.	32d-\	.	.
.	.	.	.	.	32An\JJJ	.	.
.	32cn\LLL	.	.	.	8r	.	.
.	32B-\	.	.	.	.	.	.
.	32G-\	.	.	.	.	.	.
.	32F\JJJ	.	.	.	.	.	.
.	8r	.	.	(8b- 8B-/)	32r	.	.
.	.	.	.	.	32f\LLL	.	.
.	.	.	.	.	32d-\	.	.
.	.	.	.	.	32B-\JJJ	.	.
*ped	*	*	*	*	*	*	*
4.BB- 4.BBB-/	8ryy	.	.	8ccn 8cn/	32r	.	.
.	.	.	.	.	32an\LLL	.	.
.	.	.	.	.	32e-\	.	.
.	.	.	.	.	32c\JJJ	.	.
*clefG2	*	*	*	*	*	*	*
.	32r	.	.	8dd- 8d-/	8r	<	.
.	32b-\LLL	.	.	.	.	.	.
.	32f\	.	.	.	.	.	.
.	32d-\JJJ	.	.	.	.	.	.
.	8r	.	.	8ee- 8e-/	32r	.	.
.	.	.	.	.	32cc\LLL	.	.
.	.	.	.	.	32g-\	.	.
.	.	.	.	.	32e-\JJJ	[	.
*clefF4	*	*	*	*	*	*	*
=29	=29	=29	=29	=29	=29	=29	=29
*ped	*	*	*	*	*	*	*
4.BB- 4.BBB-/	8ryy	.	.	4ff 4f/	32r	fp	.
.	.	.	.	.	32dd-\LLL	.	.
.	.	.	.	.	32b-\	.	.
.	.	.	.	.	32en\JJJ	.	.
.	32f\LLL	.	.	.	8r	.	.
.	32d-\	.	.	.	.	.	.
.	32B-\	.	.	.	.	.	.
.	32F\JJJ	.	.	.	.	.	.
.	8r	.	.	8dd- 8d-/	32r	.	.
.	.	.	.	.	32b-\LLL	.	.
.	.	.	.	.	32f\	.	.
.	.	.	.	.	32d-\JJJ	.	.
*ped	*	*	*	*	*	*	*
4.BB- 4.BBB-/	8ryy	.	.	4ccn 4cn/	32r	.	.
.	.	.	.	.	32e-X\LLL	.	.
.	.	.	.	.	32g-\	.	.
.	.	.	.	.	32An\JJJ	.	.
.	32cn\LLL	1	.	.	8r	>	.
.	32G-\	2	.	.	.	.	.
.	32An\	1	.	.	.	.	.
.	32E-\JJJ	3	.	.	.	.	.
.	32G-\LLL	2	.	8dd- 8d-/	8ryy	.	.
.	32Cn\	5	.	.	.	.	.
.	32E-\	2	.	.	.	.	.
.	32AAn\JJJ	5	.	.	.	]	.
!!LO:LB:g=original
=30	=30	=30	=30	=30	=30	=30	=30
*ped	*	*	*	*	*	*	*
4.BB- 4.BBB-/	8ryy	.	.	4b- 4B-/	32r	p	.
.	.	.	.	.	32f\LLL	.	.
.	.	.	.	.	32d-\	.	.
.	.	.	.	.	32An\JJJ	.	.
.	32cn\LLL	1	.	.	8r	.	.
.	32B-\	.	.	.	.	.	.
.	32G-\	4	.	.	.	.	.
.	32F\JJJ	.	.	.	.	.	.
.	8r	.	.	(8b- 8B-/)	32r	.	.
.	.	.	.	.	32f\LLL	.	.
.	.	.	.	.	32d-\	.	.
.	.	.	.	.	32B-\JJJ	.	.
*ped	*	*	*	*	*	*	*
4.BB- 4.BBB-/	8ryy	.	.	8ccn 8cn/	32r	.	.
.	.	.	.	.	32an\LLL	.	.
.	.	.	.	.	32e-\	.	.
.	.	.	.	.	32c\JJJ	.	.
*clefG2	*	*	*	*	*	*	*
.	32r	.	.	8dd- 8d-/	8r	<	.
.	32b-\LLL	.	.	.	.	.	.
.	32f\	.	.	.	.	.	.
.	32d-\JJJ	.	.	.	.	.	.
.	8r	.	.	8ee- 8e-/	32r	.	.
.	.	.	.	.	32cc\LLL	.	.
.	.	.	.	.	32g-\	.	.
.	.	.	.	.	32e-\JJJ	[	.
*clefF4	*	*	*	*	*	*	*
=31	=31	=31	=31	=31	=31	=31	=31
*ped	*	*	*	*	*	*	*
4.BB- 4.BBB-/	8ryy	.	.	4ff 4f/	32r	fp	.
.	.	.	.	.	32dd-\LLL	.	.
.	.	.	.	.	32b-\	.	.
.	.	.	.	.	32en\JJJ	.	.
.	32f\LLL	.	.	.	8r	.	.
.	32d-\	.	.	.	.	.	.
.	32B-\	.	.	.	.	.	.
.	32F\JJJ	.	.	.	.	.	.
.	8r	.	.	8dd- 8d-/	32r	.	.
.	.	.	.	.	32b-\LLL	.	.
.	.	.	.	.	32f\	.	.
.	.	.	.	.	32d-\JJJ	.	.
*ped	*	*	*	*	*	*	*
4.BB- 4.BBB-/	8ryy	.	.	4ccn 4cn/	32r	.	.
.	.	.	.	.	32e-X\LLL	.	.
.	.	.	.	.	32g-\	.	.
.	.	.	.	.	32An\JJJ	.	.
.	32cn\LLL	.	.	.	8r	>	.
.	32G-\	.	.	.	.	.	.
.	32An\	.	.	.	.	.	.
.	32E-\JJJ	.	.	.	.	.	.
.	32G-\LLL	.	.	8dd- 8d-/	8ryy	.	.
.	32Cn\	.	.	.	.	.	.
.	32E-\	.	.	.	.	.	.
.	32AAn\JJJ	.	.	.	.	]	.
!!LO:LB:g=original
=32	=32	=32	=32	=32	=32	=32	=32
*ped	*	*	*	*	*	*	*
4.BB- 4.BBB-/	8ryy	.	.	2.b- 2.B-/	32r	p	.
.	.	.	.	.	32f\LLL	.	.
.	.	.	.	.	32d-\	.	.
.	.	.	.	.	32An\JJJ	.	.
.	32cn\LLL	.	.	.	8r	.	.
.	32B-\	.	.	.	.	.	.
.	32G-\	.	.	.	.	.	.
.	32F\JJJ	.	.	.	.	.	.
.	8r	.	.	.	32b-LLL 32B-\	.	.
.	.	.	.	.	32f\	.	.
.	.	.	.	.	32d-\	.	.
.	.	.	.	.	32B-\JJJ	.	.
*ped	*	*	*	*	*	*	*
4.BB- 4.BBB-/	8ryy	.	.	.	32b-LLL 32B-\	.	.
.	.	.	.	.	32f\	.	.
.	.	.	.	.	32d-\	.	.
.	.	.	.	.	32A\JJJ	.	.
.	32c\LLL	.	.	.	8r	.	.
.	32B-\	.	.	.	.	.	.
.	32G-\	.	.	.	.	.	.
.	32F\JJJ	.	.	.	.	.	.
.	8r	.	.	.	32b-LLL 32B-\	.	.
.	.	.	.	.	32f\	.	.
.	.	.	.	.	32d-\	.	.
.	.	.	.	.	32B-\JJJ	.	.
=33	=33	=33	=33	=33	=33	=33	=33
!	!	!	!	!LO:TX:a:t=molto rallentando	!	!	!
*ped	*	*	*	*	*	*	*
!	!	!	!	!	!LO:TX:t=molto ral-len-tan-do:dur=4q:ext=ud:problem:text with extention lines	!	!
4.AA- 4.AAA-/	8ryy	.	.	(4cc-X 4c-X/)	32r	pp	.
.	.	.	.	.	32a-\LLL	.	.
.	.	.	.	.	32e-\	.	.
.	.	.	.	.	32B-\JJJ	.	.
.	32c-\LLL	.	.	.	8r	.	.
.	32A-\	.	.	.	.	.	.
.	32E-\	.	.	.	.	.	.
.	32AA-\JJJ	.	.	.	.	.	.
.	8r	.	.	8cc- 8c-/	32r	.	.
.	.	.	.	.	32a-\LLL	.	.
.	.	.	.	.	32e-\	.	.
.	.	.	.	.	32c-\JJJ	.	.
*ped	*	*	*	*	*	*	*
4.D- 4.DD-/	8ryy	.	.	4ee- 4e-/	32r	.	.
.	.	.	.	.	32a-\LLL	.	3
.	.	.	.	.	32f\	.	2
.	.	.	.	.	32c-X\JJJ	.	1
.	32d-\LLL	1	.	.	8r	.	.
.	32F\	2	.	.	.	.	.
.	32D-\	3	.	.	.	.	.
*Xped	*	*	*	*	*	*	*
.	32AA-\JJJ	5	.	.	.	.	.
.	32F\LLL	1	.	8dd-: 8a- 8c-/	8ryy	.	.
.	32D-\	.	.	.	.	.	.
.	32AA-\	.	.	.	.	.	.
.	32DD-\JJJ	.	.	.	.	.	.
*v	*v	*	*	*	*	*	*
!!LO:LB:g=original
=34	=34	=34	=34	=34	=34	=34
.	.	.	(16qqB-/LL	.	.	1
.	.	.	16qqd-/)	.	.	2
.	.	.	16qqg-/	.	.	3
!	!	!	!LO:TX:b:i:t=a tempo	!	!	!
.	.	.	16qqb-/JJ	.	.	4
32GG-\LLL	.	.	4.dd-/	8r	.	.
32D-\	.	.	.	.	.	.
32E-\	.	.	.	.	.	.
32F\JJJ	.	.	.	.	.	.
32G-\LLL	.	.	.	8b-L 8g-\	.	.
32A-\	.	.	.	.	.	.
32B-\	.	.	.	.	.	.
32F\JJJ	.	.	.	.	.	.
32A-\LLL	.	.	.	8b-J 8g-\	.	.
32G-\	.	.	.	.	.	.
32D-\	.	.	.	.	.	.
32BB-\JJJ	.	.	.	.	.	.
32GG-\LLL	.	.	4.gg- 4.g-/	8r	.	.
32D-\	.	.	.	.	.	.
32E-\	.	.	.	.	.	.
32F\JJJ	.	.	.	.	.	.
32G-\LLL	.	.	.	8b-L 8g-\	.	.
32A-\	.	.	.	.	.	.
32B-\	.	.	.	.	.	.
32F\JJJ	.	.	.	.	.	.
32A-\LLL	.	.	.	8b-J 8g-\	.	.
32G-\	.	.	.	.	.	.
32D-\	.	.	.	.	.	.
32BB-\JJJ	.	.	.	.	.	.
=35	=35	=35	=35	=35	=35	=35
32CC-/LLL	5	.	4.ff 4.f/	8r	.	.
32GG-/	.	.	.	.	.	.
32AA-/	.	.	.	.	.	.
32BB-/JJJ	.	.	.	.	.	.
32C-/LLL	.	.	.	8cc-L 8g-\	.	.
32D-/	.	.	.	.	.	.
32E-/	.	.	.	.	.	.
32BB-/JJJ	.	.	.	.	.	.
32D-/LLL	.	.	.	8cc-J 8g-\	.	.
32C-/	.	.	.	.	.	.
32GG-/	.	.	.	.	.	.
32EE-/JJJ	.	.	.	.	.	.
32CC-/LLL	.	.	4.ee- 4.e-/	8r	.	.
32GG-/	.	.	.	.	.	.
32AA-/	.	.	.	.	.	.
32BB-/JJJ	.	.	.	.	.	.
32C-/LLL	.	.	.	8cc-L 8g-\	.	.
32D-/	.	.	.	.	.	.
32E-/	.	.	.	.	.	.
32BB-/JJJ	.	.	.	.	.	.
32D-/LLL	.	.	.	8cc-J 8g-\)	.	.
32C-/	.	.	.	.	.	.
32GG-/	.	.	.	.	.	.
32EE-/JJJ	.	.	.	.	.	.
=36	=36	=36	=36	=36	=36	=36
!	!	!	!LO:TX:t=P:problem:wybrakowane źródło. Uzupełnione na podstawie: https://polona.pl/item/12-etude-pour-piano-op-25-h-1-no-1-6,MTE2NjUxODY5/22/#info:metadata	!	!	!
32DD-/LLL	.	.	(4.a- 4.A-/	8r	.	.
32AA-/	.	.	.	.	.	.
32BB-/	.	.	.	.	.	.
32Cn/JJJ	.	.	.	.	.	.
32D-\LLL	.	.	.	8fL 8d-\	.	.
32E-\	.	.	.	.	.	.
32F\	.	.	.	.	.	.
32C\JJJ	.	.	.	.	.	.
32E-/LLL	.	.	.	8fJ 8d-\	.	.
32D-/	.	.	.	.	.	.
32AA-/	.	.	.	.	.	.
32FF/JJJ	.	.	.	.	.	.
32DD-/LLL	.	.	4dd- 4d-/	8r	.	.
32AA-/	.	.	.	.	.	.
32BB-/	.	.	.	.	.	.
32C/JJJ	.	.	.	.	.	.
32D-\LLL	.	.	.	8fL 8d-\	.	.
32E-\	.	.	.	.	.	.
32F\	.	.	.	.	.	.
32C\JJJ	.	.	.	.	.	.
32E-/LLL	.	.	8cc-X 8c-X/	8a-J 8d-\	.	.
32D-/	.	.	.	.	.	.
32FF/	.	.	.	.	.	.
32D-/JJJ	.	.	.	.	.	.
=37	=37	=37	=37	=37	=37	=37
32GG-/LLL	.	.	4.cc- 4.c-/	8r	.	.
32Cn/	.	.	.	.	.	.
32D-/	.	.	.	.	.	.
32Dn/JJJ	.	.	.	.	.	.
32E-\LLL	.	.	.	8a-L 8d-\	.	.
32En\	.	.	.	.	.	.
32F\	.	.	.	.	.	.
32A-\JJJ	.	.	.	.	.	.
32G-\LLL	.	.	.	8a-J 8d-\	.	.
32F\	.	.	.	.	.	.
32E-X\	.	.	.	.	.	.
32D-X\JJJ	.	.	.	.	.	.
32GG-\LLL	.	.	4b- 4B-/)	8r	.	.
32G-\	.	.	.	.	.	.
32F\	.	.	.	.	.	.
32E-\JJJ	.	.	.	.	.	.
32D-\LLL	.	.	.	8g- 8d-\	.	.
32E-\	.	.	.	.	.	.
32D-\	.	.	.	.	.	.
32C-X\JJJ	.	.	.	.	.	.
32BB-/LLL	.	.	8r	8ryy	.	.
(8qD-/	.	.	.	.	.	.
32C-/)	.	.	.	.	.	.
32BB-/	.	.	.	.	.	.
32AA-/JJJ	.	.	.	.	.	.
=38	=38	=38	=38	=38	=38	=38
32GG-\LLL	.	.	(4dd- 4d-/	8r	.	.
32D-\	.	.	.	.	.	.
32E-\	.	.	.	.	.	.
32F\JJJ	.	.	.	.	.	.
32G-\LLL	.	.	.	4b- 4g-\	.	.
32A-\	.	.	.	.	.	.
32B-\	.	.	.	.	.	.
32F\JJJ	.	.	.	.	.	.
32A-\LLL	.	.	8dd- 8d-/	.	<	.
32G-\	.	.	.	.	.	.
32D-\	.	.	.	.	.	.
32BB-\JJJ	.	.	.	.	.	.
32GG-\LLL	.	.	4gg- 4g-/	8r	[	.
32D-\	.	.	.	.	.	.
32E-\	.	.	.	.	.	.
32F\JJJ	.	.	.	.	.	.
32G-\LLL	.	.	.	4dd- 4b-\	.	.
32A-\	.	.	.	.	.	.
32B-\	.	.	.	.	.	.
32F\JJJ	.	.	.	.	.	.
32A-\LLL	.	.	8gg- 8g-/	.	.	.
32G-\	.	.	.	.	.	.
32D-\	.	.	.	.	.	.
32BB-\JJJ	.	.	.	.	.	.
=39	=39	=39	=39	=39	=39	=39
32C-\LLL	.	.	4ff 4f/	8r	f	.
32G-\	.	.	.	.	.	.
32A-\	.	.	.	.	.	.
32B-\JJJ	.	.	.	.	.	.
32c-\LLL	.	.	.	4cc- 4g-\	.	.
32d-\	.	.	.	.	.	.
32e-\	.	.	.	.	.	.
32B-\JJJ	.	.	.	.	.	.
32d-\LLL	.	.	8ee- 8e-/	.	.	.
32c-\	.	.	.	.	.	.
32G-\	.	.	.	.	.	.
32E-\JJJ	.	.	.	.	.	.
32AA-\LLL	.	.	4dd- 4d-/	8r	.	.
32E-\	.	.	.	.	.	.
32F\	.	.	.	.	.	.
32Gn\JJJ	.	.	.	.	.	.
32A-\LLL	.	.	.	4a- 4e-\	.	.
32B-\	.	.	.	.	.	.
32c-\	.	.	.	.	.	.
32G\JJJ	.	.	.	.	.	.
32A-\LLL	.	.	8cc- 8c-/	.	.	.
32AA-\	.	.	.	.	.	.
32C-\	.	.	.	.	.	.
32E-\JJJ	.	.	.	.	.	.
=40	=40	=40	=40	=40	=40	=40
32D-/LLL	.	.	4b- 4B-/	8r	.	.
32DD-/	.	.	.	.	.	.
32GG-/	.	.	.	.	.	.
32AA-/JJJ	.	.	.	.	.	.
32AAn/LLL	.	.	.	4g- 4d-\	>	.
32BB-/	.	.	.	.	.	.
32C-/	.	.	.	.	.	.
32Cn/JJJ	.	.	.	.	.	.
32E-/LLL	.	.	8b- 8B-/	.	.	.
32D-/	.	.	.	.	.	.
32BB-/	.	.	.	.	.	.
32GG-/JJJ	.	.	.	.	.	.
!	!	!	!LO:TX:b:i:t=poco rall.	!	!	!
32DD-/LLL	.	.	4cc-X 4c-X/	8r	]	.
32GGn/	.	.	.	.	.	.
32AA-X/	.	.	.	.	.	.
32AAn/JJJ	.	.	.	.	.	.
32BB-/LLL	.	.	.	8f 8d-\	.	.
32C-X/	.	.	.	.	.	.
32Cn/	.	.	.	.	.	.
32E-/JJJ	.	.	.	.	.	.
32D-/LLL	.	.	8f 8d- 8c- 8F/	8ryy	.	.
32C-X/	.	.	.	.	.	.
32AA-X/	.	.	.	.	.	.
32DD-/JJJ	.	.	.	.	.	.
=41	=41	=41	=41	=41	=41	=41
!	!	!	!LO:TX:a:t=a tampo	!	!	!
32GGG-/LLL	.	.	4.g- 4.G-/	8r	p	.
32DD-/	.	.	.	.	.	.
32EE-/	.	.	.	.	.	.
32FF/JJJ	.	.	.	.	.	.
32GG-/LLL	.	.	.	8d-L 8B-\	.	.
32AA-/	.	.	.	.	.	.
32BB-/	.	.	.	.	.	.
32FF/JJJ	.	.	.	.	.	.
32AA-/LLL	.	.	.	8d-J 8B-\	.	.
32GG-/	.	.	.	.	.	.
32DD-/	.	.	.	.	.	.
32BBB-/JJJ	.	.	.	.	.	.
32GGG-/LLL	.	.	(4.g- 4.F-X/)	8r	.	.
32DD-/	.	.	.	.	.	.
32EE-/	.	.	.	.	.	.
32FFn/JJJ	.	.	.	.	.	.
!	!	!	!	!	!LO:DY:a	!
32GG-/LLL	.	.	.	8d-L 8B-\	<	.
32AA-/	.	.	.	.	.	.
32BB-/	.	.	.	.	.	.
32FF/JJJ	.	.	.	.	.	.
32AA-/LLL	.	.	.	8d-J 8B-\	.	.
32GG-/	.	.	.	.	.	.
32DD-/	.	.	.	.	.	.
32BBB-/JJJ	.	.	.	.	.	.
=42	=42	=42	=42	=42	=42	=42
32GGG-\LLL	.	.	4.g- 4.E-/	8r	[	.
32CC-\	.	.	.	.	.	.
32DD-\	.	.	.	.	.	.
32DDn\JJJ	.	.	.	.	.	.
32EE-\LLL	.	.	.	8c-L 8G-/	.	.
32EEn\	.	.	.	.	.	.
32FF\	.	.	.	.	.	.
32AA-\JJJ	.	.	.	.	.	.
!	!	!	!	!	!LO:DY:a	!
32GG-\LLL	.	.	.	8c-J 8G-/	>	.
32FF\	.	.	.	.	.	.
32EE-X\	.	.	.	.	.	.
32DD-X\JJJ	.	.	.	.	.	.
32GGG-\LLL	.	.	4a-/	8d-L 8c- 8Fn/	.	.
32CCn\	.	.	.	.	.	.
32DD-\	.	.	.	.	.	.
32DDn\JJJ	.	.	.	.	.	.
32EE-\LLL	.	.	.	8d- 8c- 8F/	.	.
32EEn\	.	.	.	.	.	.
32FF\	.	.	.	.	.	.
32AA-\JJJ	.	.	.	.	.	.
32GG-\LLL	.	.	8b-/	8d-:J 8c-: 8F:/	]	.
32FF\	.	.	.	.	.	.
32EE-X\	.	.	.	.	.	.
32DD-X\JJJ	.	.	.	.	.	.
=43	=43	=43	=43	=43	=43	=43
32GGG-/LLL	.	.	4.g- 4.G-/	8r	.	.
32DD-/	.	.	.	.	.	.
32EE-/	.	.	.	.	.	.
32FF/JJJ	.	.	.	.	.	.
32GG-/LLL	.	.	.	8d-L 8B-\	.	.
32AA-/	.	.	.	.	.	.
32BB-/	.	.	.	.	.	.
32FF/JJJ	.	.	.	.	.	.
32AA-/LLL	.	.	.	8d-J 8B-\	.	.
32GG-/	.	.	.	.	.	.
32DD-/	.	.	.	.	.	.
32BBB-/JJJ	.	.	.	.	.	.
32GGG-/LLL	.	.	(4.g- 4.F-X/)	8r	.	.
32DD-/	.	.	.	.	.	.
32EE-/	.	.	.	.	.	.
32FFn/JJJ	.	.	.	.	.	.
!	!	!	!	!	!LO:DY:a	!
32GG-/LLL	.	.	.	8d-L 8B-\	<	.
32AA-/	.	.	.	.	.	.
32BB-/	.	.	.	.	.	.
32FF/JJJ	.	.	.	.	.	.
32AA-/LLL	.	.	.	8d-J 8B-\	.	.
32GG-/	.	.	.	.	.	.
32DD-/	.	.	.	.	.	.
32BBB-/JJJ	.	.	.	.	.	.
=44	=44	=44	=44	=44	=44	=44
32GGG-\LLL	.	.	4.g- 4.E-/	8r	[	.
32CC-\	.	.	.	.	.	.
32DD-\	.	.	.	.	.	.
32DDn\JJJ	.	.	.	.	.	.
32EE-\LLL	.	.	.	8c-L 8G-/	.	.
32EEn\	.	.	.	.	.	.
32FF\	.	.	.	.	.	.
32AA-\JJJ	.	.	.	.	.	.
!	!	!	!	!	!LO:DY:a	!
32GG-\LLL	.	.	.	8c-J 8G-/	>	.
32FF\	.	.	.	.	.	.
32EE-X\	.	.	.	.	.	.
32DD-X\JJJ	.	.	.	.	.	.
32GGG-\LLL	.	.	4a-/	8d-L 8c- 8Fn/	.	.
32CCn\	.	.	.	.	.	.
32DD-\	.	.	.	.	.	.
32DDn\JJJ	.	.	.	.	.	.
32EE-\LLL	.	.	.	8d- 8c- 8F/	.	.
32EEn\	.	.	.	.	.	.
32FF\	.	.	.	.	.	.
32AA-\JJJ	.	.	.	.	.	.
32GG-\LLL	.	.	8b-/	32d-:Jkk 32c-: 32F:/	]	.
32FF\	.	.	.	32ryy	.	.
32EE-X\	.	.	.	32ryy	.	.
32DD-X\JJJ	.	.	.	32ryy	.	.
*	*	*	*v	*v	*	*
=45	=45	=45	=45	=45	=45
32GGG-/LLL	.	.	4g- 4B- 4G-/	pp	.
32DD-/	.	.	.	.	.
32EE-/	.	.	.	.	.
32FF/JJJ	.	.	.	.	.
32GG-/LLL	.	.	.	.	.
32AA-/	.	.	.	.	.
32BB-/	.	.	.	.	.
32FF/JJJ	.	.	.	.	.
.	.	.	(16qqG-/LL)	.	.
.	.	.	16qqd-/JJ)	.	.
32AA-/LLL	.	.	8b-'\	.	.
32GG-/	.	.	.	.	.
32DD-/	.	.	.	.	.
32BBB-/JJJ	.	.	.	.	.
.	.	.	(16qqB-/LL	.	.
.	.	.	16qqg-/JJ)	.	.
32GGG-/LLL	.	.	8dd-'\	.	.
32DD-/	.	.	.	.	.
32EE-/	.	.	.	.	.
32FF/JJJ	.	.	.	.	.
.	.	.	(16qqd-/LL	.	.
.	.	.	16qqb-/JJ)	.	.
32GG-/LLL	.	.	8gg-'\	.	.
32BB-/	.	.	.	.	.
32AA-/	.	.	.	.	.
32FF/JJJ	.	.	.	.	.
.	.	.	(16qqg-/LL	.	.
.	.	.	16qqdd-/JJ)	.	.
32AA-/LLL	.	.	8bb-'\	.	.
32GG-/	.	.	.	.	.
32DD-/	.	.	.	.	.
32BBB-/JJJ	.	.	.	.	.
=46	=46	=46	=46	=46	=46
.	.	.	(16qqb-/LL	.	.
.	.	.	16qqgg-/JJ)	.	.
*	*	*	*8va	*	*
32GGG-/LLL	.	.	8ddd-'\	.	.
32DD-/	.	.	.	.	.
32EE-/	.	.	.	.	.
32FF/JJJ	.	.	.	.	.
.	.	.	(16qqg-/LL	.	.
.	.	.	16qqdd-/JJ)	.	.
32GG-/LLL	.	.	8bb-'\	.	.
32AA-/	.	.	.	.	.
32BB-/	.	.	.	.	.
!LO:TX:a:t=poco rall.	!	!	!	!	!
32FF/JJJ	.	.	.	.	.
.	.	.	(16qqb-/LL	.	.
.	.	.	16qqgg-/JJ)	.	.
32AA-/LLL	.	.	8ddd-'\	.	.
32GG-/	.	.	.	.	.
32DD-/	.	.	.	.	.
32BBB-/JJJ	.	.	.	.	.
.	.	.	(16qqdd-/LL	.	.
.	.	.	16qqbb-/JJ)	.	.
32GGG-/LLL	.	.	8ggg-'\	.	.
32DD-/	.	.	.	.	.
32EE-/	.	.	.	.	.
32FF/JJJ	.	.	.	.	.
.	.	.	(16qqgg-/LL	.	.
.	.	.	16qqddd-/JJ)	.	.
32GG-/LLL	.	.	8bbb-'\	.	.
32AA-/	.	.	.	.	.
32BB-/	.	.	.	.	.
32FF/JJJ	.	.	.	.	.
.	.	.	(16qqbb-/LL	.	.
.	.	.	16qqggg-/JJ)	.	.
32AA-/LLL	.	.	8dddd-'\	.	.
32GG-/	.	.	.	.	.
32DD-/	.	.	.	.	.
32BBB-/JJJ	.	.	.	.	.
=47	=47	=47	=47	=47	=47
.	.	.	(16qqddd-/LL	.	.
.	.	.	16qqbbb-/JJ)	.	.
8GGG-'/	.	.	8gggg-'\	.	.
*	*	*	*X8va	*	*
8r	.	.	8r	.	.
8r	.	.	8r	.	.
*clefG2	*	*	*	*	*
(16qqG-/LL	.	.	(16qqdd-/LL	.	.
16qqd-/JJ)	.	.	16qqbb-/JJ)	.	.
8b-'\	.	.	8ggg-'\	.	.
4r	.	.	8r	.	.
.	.	.	8r	.	.
*clefF4	*	*	*	*	*
=48	=48	=48	=48	=48	=48
.	.	.	(8qqGG-;\L	.	.
.	.	.	8qqD-;\)	.	.
.	.	.	8qqG-;\	.	.
.	.	.	8qqB-;\J	.	.
.	.	.	8qqd-;\L	.	.
.	.	.	8qqg-;\	.	.
.	.	.	8qqb-;\	.	.
.	.	.	8qqdd-;\J	.	.
2.ryy	.	.	2.gg-;\	.	.
==	==	==	==	==	==
*-	*-	*-	*-	*-	*-
!!!system-decoration: [(s1,s2)]
!!!ENC: Berenika Jozajtis
!!!END: 2022-07-25
!!!ENC: Urszula Świątek
!!!END: 2022-08-18
